file-video-outline.svg

<svg fill="currentColor" viewBox="0 0 24 24"><path d="m14 2 6 6v12a2 2 0 0 1-2 2H6a2 2 0 0 1-2-2V4a2 2 0 0 1 2-2zm4 18V9h-5V4H6v16zm-2-2-2.5-1.7V18H8v-5h5.5v1.7L16 13z"/></svg>

<svg  viewBox="0 0 24 24" fill="currentColor"><path  d="M14,2L20,8V20A2,2 0 0,1 18,22H6A2,2 0 0,1 4,20V4A2,2 0 0,1 6,2H14M18,20V9H13V4H6V20H18M16,18L13.5,16.3V18H8V13H13.5V14.7L16,13V18Z"/></svg>
